X: 2
T: Harum Scarum  v.2
T: Harem Scarem
P: piffero secondo a0530
O: safd 114
F: http://ancients.sudburymuster.org/mus/med/pdf/hanoverharC0.pdf
Z: 2020 John Chambers <jc:trillian.mit.edu>
M: 2/4
L: 1/16
K: D
A2 |\
F2D2 F2D2 | A2A2 A4 | F2D2 F2A2 | G2G2 G4 |\
F2D2 F2D2 | A2A2 A4 | F2D2 A2A2 | F2F2 F2 :|
|: z2 |\
f2e2 d2f2 | d2e2 f4 | F2F2 d2f2 | e2c2 A2c2 |\
f2e2 d2f2 | d2e2 f4 | F2F2 d2f2 | e2c2 d2 :|

% %sep 1 1 200
% %center - - - - - - - - - -
% Whatever we want at the bottom of each set belongs here.
